X:1
T:Sacerdos et Pontifex - Gabrieli
T:James Gibb editions
T:#
%%score [ 1 2 3 4 ]
L:1/8
Q:1/4=200
M:none
K:C
V:1 treble nm="Soprano" snm="S"
V:2 treble nm="Alto" snm="A"
V:3 treble-8 nm="Tenor" snm="T"
V:4 bass nm="Bass" snm="B"
V:1
"^Sacerdos et Pontifex""^Andrea Gabrieli\n(c. 1510-1586)" G8 (G8 | c6 B2 A2 G2 A4- | %2
w: Sa- cer\-||
 A2 G2 F4) E4 G4- | G4 c8 B4 | c4 G4 G8 | A4 F4 F4 D4 | (G2 F2 E2 D2 E8) | z16 | z8 z4 G4 | %9
w: * * * dos et|* Pon- ti-|fex, Sa- cer-|dos et Pon- ti-|fex, * * * *||Sa-|
 (G8 c6 B2 | A8) G4 G4 | (G2 A2 B2 G2 A4) A4 | G8 z4 G4 | (G6 F2 E2 D2 E4- | E4) E4 E4 D4 | %15
w: cer\- * *|* dos et|Pon\- * * * * ti-|fex, et|Pon\- * * * *|* ti- fex, et|
 (E2 F2 G8) ^F4 | G8 z8 | B8 c8 | d8 G4 (B4- | B2 c2 d8) c4 | (d2 c2 B2 A2 G8) | z16 | z16 | %23
w: Pon\- * * ti-|fex,|et vir-|tu- tum o\-|* * * pi-|fex, * * * *|||
 z8 z4 d4- | d4 B4 (c4 B2 A2 | B6 c2 d4) A4 | c4 B4 A8 | z4 E4 F8 | G8 C4 (E4- | E2 F2 G8) ^F4 | %30
w: et|* vir- tu\- * *|* * * tum|o- pi- fex,|et vir-|tu- tum o\-|* * * pi-|
 G8 z8 | z4 D8 E4 | D4 D4 F4 E4 | D8 z4 F4- | F4 F4 (F2 EF G4) | A8 z4 F4- | F4 F4 (F2 EF G4) | %37
w: fex,|et vir-|tu- tum o- pi-|fex, pa\-|* stor bo\- * * *|ne, pa\-|* stor bo\- * * *|
 A4 c4 A8- | A4 E4 ^F8 | z8 G8 | ^F8 G8 | A12 G4 | G8 ^F8 | G16 | z4 G4 ^F4 G4 | A8 G8 | z8 z4 G4 | %47
w: ne in po\-|* pu- lo,|o-|ra pro|no- bis|Do- mi-|num,|o- ra pro|no- bis,|o-|
 ^F4 G4 A4 G4 | G4 ^F4 G8 | z4 =F4 E4 F4 | G4 A4 c8 | c8 A8 | z4 A4 ^G4 A4 | B4 A4 A4 ^G4 | %54
w: ra pro no- bis|Do- mi- num,|o- ra pro|no- bis Do-|mi- num,|o- ra pro|no- bis Do- mi-|
 A8[Q:1/4=196] z8 |[Q:1/4=192] z4[Q:1/4=188] G4[Q:1/4=185] ^F4[Q:1/4=182] G4 | %56
w: num,|o- ra pro|
[Q:1/4=179] A4[Q:1/4=177] G4[Q:1/4=174] G4[Q:1/4=171] ^F4 |[Q:1/4=170] G16 |] %58
w: no- bis Do- mi-|num.|
V:2
 z8 C8 | (C8 F6 E2 | D8) C4 C4 | (C2 D2 E2 C2 D4) D4 | C4 E4 (E6 D2 | C2 B,2 C8) B,4 | C8 z8 | %7
w: Sa-|cer\- * *|* dos et|Pon\- * * * * ti-|fex, et Pon\- *|* * * ti-|fex,|
 z8 G,8 | (G,8 D8) | E16 | C8 D4 E4 | C4 B,4 (D6 C2 | B,2 A,2 B,8) B,4 | E8 z4 C4 | (C12 B,2 A,2 | %15
w: Sa-|cer\- *|dos|et Pon- ti-|fex, et Pon\- *|* * * ti-|fex, et|Pon\- * *|
 B,6 C2 D4) D4 | (D2 C2 B,2 A,2 G,4) G4- | G4 E8 (F4- | F4 E2 D2 E6 F2 | G4) D4 F4 E4 | %20
w: * * * ti-|fex, * * * * et|* vir- tu\-||* tum o- pi-|
 (D6 C2 B,4) E4- | E4 A,4 A,8 | z16 | z4 E4 F8 | G8 C4 (E4- | E2 F2 G8) F4 | G4 E8 D4 | %27
w: fex, * * o\-|* pi- fex,||et vir-|tu- tum o\-|* * * pi-|fex, et vir-|
 (E2 D2 C2 B,2 C4) D4 | (D6 E2 F4) (C4- | C2 D2 E4) D8 | z4 B,4 C8 | D8 G,4 (B,4- | %32
w: tu\- * * * * tum|o\- * * pi\-|* * * fex,|et vir-|tu- tum o\-|
 B,2 C2 D8) ^C4 | D4 A,8 A,4 | D16 | C4 A,8 A,4 | D16 | C4 E8 D4- | D4 ^C4 D8 | D16 | D8 D8 | %41
w: * * * pi-|fex, pa- stor|bo-|ne, pa- stor|bo-|ne in po\-|* pu- lo,|o-|ra pro|
 F8 F4 (D4- | D2 C2 C2 B,2 D4) D4 | D16- | D8 z4 D4 | ^C4 D4 E8 | D4 G8 E4 | D4 B,4 A,4 B,4 | %48
w: no- bis Do\-|* * * * * mi-|num,|* o-|ra pro no-|bis Do- mi-|num, o- ra pro-|
 D4 D8 C4- | C4 B,4 C8 | z4 F4 E4 F4 | G8 F8 | z4 F4 E4 C4 | E4 E4 E6 E2 | E4 F4 D4 E4 | %55
w: no- bis Do\-|* mi- num,|o- ra pro-|no- bis,|o- ra pro|no- bis Do- mi-|num, o- ra pro|
 D4 ^C4 (D8 | E8) D8 | D16 |] %58
w: no- bis Do\-|* mi-|num.|
V:3
 z16 | z16 | z16 | z8 G8 | (G8 c6 B2 | A2 G2 A6 G2 F4) | E4 G8 c4- | c4 B4 c4 (G2 A2 | %8
w: |||Sa-|cer\- * *||dos et Pon\-|* ti- fex, Sa\- *|
 B2 c2 d4) B4 B4 | G4 (c6 B2 A2 GF | E4) E4 D4 G4 | E4 E4 D8 | z8 G8 | (G8 c6 B2 | A8) G4 G4 | %15
w: * * * cer- dos|et Pon\- * * * *|* ti- fex, et|Pon- ti- fex,|Sa-|cer\- * *|* dos et|
 (G2 A2 B2 G2 A4) A4 | G16 | z16 | z16 | G8 A8 | B8 E4 B4 | c8 d8 | G4 (B6 c2 d4- | %23
w: Pon\- * * * * ti-|fex,|||et vir-|tu- tum, et|vir- tu-|tum o\- * *|
 d4) ^c4 (d6 =c2 | B4 G4 A8 | (G6 A2 B2 c2 d4) | G8 z8 | G8 A4 _B4- | B4 A2 G2 A6 =B2 | %29
w: * pi- fex, *|* et vir-|tu\- * * * *|tum,|et vir- tu\-||
 c4) G4 _B4 A4 | G8 z8 | z16 | z16 | z4 F8 F4 | (F6 E2 D8) | E4 F8 F4 | (F6 E2 D8) | E8 F8 | %38
w: * tum o- pi-|fex,|||pa- stor|bo\- * *|ne, pa- stor|bo\- * *|ne in|
 E4 A4 A8 | B16 | A8 B8 | c12 B4 | G8 A8 | G16 | z4 B4 c4 B4 | A8 B4 c4- | c4 B4 (c6 B2 | %47
w: po- pu- lo,|o-|ra pro|no- bis|Do- mi-|num,|o- ra pro|no- bis Do\-|* mi- num, *|
 A4) G4 ^F4 G4 | A8 G8 | z8 z4 F4 | E4 F4 G4 F4 | F4 E4 F6 G2 | A8 z4 A4 | ^G4 A4 B8 | A8 z4 G4 | %55
w: * o- ra pro-|no- bis,|o-|ra pro no- bis|Do- mi- num, *|* o-|ra pro- no-|bis, o-|
 ^F4 G4 A4 _B4 | A8 A8 | G16 |] %58
w: ra pro no- bis|Do- mi-|num.|
V:4
 z16 | z16 | z16 | z16 | C,8 (C,8 | F,6 E,2 D,8) | C,4 C,4 (C,2 D,2 E,2 C,2 | D,4) D,4 C,8 | %8
w: ||||Sa- cer\-||dos et Pon\- * * *|* ti- fex,|
 z4 G,,4 (G,,8 | C,6 B,,2 A,,2 G,,2 A,,4- | A,,2 B,,2 C,4) B,,4 C,4- | C,4 G,8 ^F,4 | %12
w: Sa- cer\-||* * * dos et|* Pon- ti-|
 G,4 E,4 (E,6 D,2 | C,2 B,,2 C,8) A,,4 | (A,,2 B,,2 C,2 D,2 E,2 F,2 G,4) | E,8 D,4 D,4 | G,,16 | %17
w: fex, et Pon\- *|* * * ti-|fex, * * * * * *|et Pon- ti-|fex,|
 z16 | z16 | z16 | z4 G,8 E,4- | E,4 (F,8 E,2 D,2 | E,6 F,2 G,4) D,4 | F,4 E,4 D,8 | z16 | z8 D,8 | %26
w: |||et vir\-|* tu\- * *|* * * tum|o- pi- fex,||et|
 E,8 F,8 | C,8 z8 | z16 | C,8 D,8 | E,8 A,,4 A,4 | ^F,4 G,8 E,4 | G,8 A,8 | D,4 D,8 D,4 | _B,,16 | %35
w: vir- tu-|tum||et vir-|tu- tum, et|vir- tu- tum|o- pi-|fex, pa- stor|bo-|
 A,,4 D,8 D,4 | _B,,16 | A,,4 A,,4 (F,,6 G,,2 | A,,4) A,,4 D,8 | G,,16 | D,8 G,8 | F,12 G,4 | %42
w: ne, pa- stor|bo-|ne in po\- *|* pu- lo,|o-|ra pro|no- bis|
 E,8 D,8 | G,,8 z4 G,4 | ^F,4 G,4 A,4 G,4 | G,4 ^F,4 G,8- | G,8 z8 | D,16- | D,8 B,,4 C,4 | %49
w: Do- mi-|num, o-|ra pro no- bis|Do- mi- num,||o\-|* ra pro|
 D,8 C,8- | C,16 | C,8 z4 D,4 | ^C,4 D,4 E,4 F,4 | E,8 E,8 | A,,4 D,4 B,,4 C,4 | D,4 E,4 (D,8 | %56
w: no- bis,||* o-|ra pro- no- bis|Do- mi-|num, o- ra pro|no- bis Do\-|
 C,8) D,8 | G,,16 |] %58
w: * mi-|num.|

